X: 1
T: Campbelltown Loch
T: Glendaruel Highlanders
C: Pipe Major A. Fettes
B: Barbara McOwen's collection (in D, only two parts)
B: Scots Guards #96 (in A, four parts)
Z: John Chambers <jc:trillian.mit.edu>
N: Sometimes only the first two parts are played.
R: jig, march
M: 6/8
L: 1/8
K: A
|: e \
|  "A"A2A A>Bc | e>ce "D"f2e | "A"c>BA "D"f<af | "E"e3 e>fa \
|  "A"A2A A>Bc | e>ce "D"f2e | "A"f<ac "E7"e>dB | "A"A3- A2 :|
[| e/d/ \
|  "A"c2A c<eB | c2A A>ce | "D"f2e f<af | "E7"e3 e>fa \
|  "A"c2A c<eB | c2A A>ce | "D"f>ec "E7"e>dB | "A"A3 Aed ||
|| "A"c2A c<eB | c2A A>ce | "D"f2e f<af | "E7"e3 efg \
|  "A"a2c "Fm"c>de | "Bm"f2B "E7"B>fe | "D"f<ac "E7"e>dB | "A"A3- A2 |]
|: B \
| "A"c3 e>cB | A>Bc e2c | "D"f3 a>gf | "E7"e3 e>fa \
| "A"c3 e>cB | A>Bc e2e | "D"f<ac "E7"e>dB | "A"A3- A2 :|
[| g \
|  "A"a3 f>ec | A>Bc e2c | "D"f3  "A"e>dc | "Bm"B3 "E7"B2g \
|  "A"a3 f>ec | A>Bc e2e | "D"f<ac "E7"e>dB | "A"A3- A2g ||
|| "A"a3 f>ec | A>Bc e2c | "D"f3  "A"e>dc | "Bm"B3 "E7"Bed \
|  "A"c<ec "E7"d>cB | "A"A>Bc e2e | "D"f<ac "E7"e>dB | "A"A3- A2 |]
